!!!!SEGMENT:17Ukine_c.krn
!!!OTL:浮音
!!!OPR:Eiga Banso Kyokusyu,jidai-geki,zenpen
!!!YOY:1929
!!!ONB:Kakutou,Yamiyo
**kern
*clefG2
*k[]
*C:
*M3/4
=1
!LO:TX:a:B:t=Lento
4r
4bb
4bb
=2||
*M4/4
*met(c)
4b
4b
4bb
4bb
=3||
*M3/4
4b
4b
8bbL
8bbJ
=4||
*M2/4
8bL
8bJ
8bbL
8bbJ
=5
8bL
8bJ
8bbL
8bJ
=6
8bbL
8bJ
8bbL
8bJ
=7
!LO:TX:a:B:t=Allegro
4r
8bbL
8bbJ
=8
8bL
8bJ
8bbL
8bbJ
=9
8bL
8bJ
8bbL
8bJ
=10
8bbL
8bJ
8bbL
8bJ
=11||
!LO:TX:a:B:t=Andante
8r
4ff
8aa
=12
8bbL
8aaJ
4ff
=13
8aaL
8aaJ
8bbL
8aaJ
=14
4ff
4ee
=15
!LO:TX:a:B:t=Lento
4B
4B
=16
4b
4b
=17
4B
4B
=18||
*M3/4
4b
4b
8BL
8BJ
=19
*M2/4
!LO:TX:a:B:t=Allegro
8bL
8bJ
8BL
8BJ
=20
8bL
8bJ
8BL
8bJ
=21
8BL
8bJ
8BL
8bJ
=22
8r
4a
8a
=23
!LO:TX:a:i:t=poco rit.
8bL
8ccJ
4ee
=24
4cc
8eeL
8ccJ
=25
8bL
8aJ
8eL
8ccJ
=26
8bL
8aJ
4f
=27
2e
==
*-
!!!ENC: Yukiko Yoden
!!!END: 2023/06/11
